X:4
T:Limestone Rock
R:reel
S:Mary Bergin
H:There is also another reel by the same name. See also #90
Z:id:hn-reel-4
M:C|
K:G
BG~G2 AGFA|DG~G2 A2dc|BG~G2 ~A3B|1 BAAG ABdc:|2 BAAG A2Bd||
(3ege dB eBd2|eBdB A2Bd|eB~B2 gB~B2|BAGB A2Bd|
~e3d e2ab|gedB A2BA|G2Bd ~g3b|agef gedc||
<end>
<start>
